assets/images/japan/icon-vc.svg

<svg width="100" height="100" viewBox="0 0 100 100" fill="none" xmlns="http://www.w3.org/2000/svg">
<g clip-path="url(#clip0_2321_1922)">
<path fill-rule="evenodd" clip-rule="evenodd" d="M15.0748 12.0705C13.014 13.5458 11.4619 15.6244 10.6326 18.0193C10.4223 18.5193 10.0691 18.9462 9.61728 19.2463C9.16544 19.5465 8.63506 19.7066 8.09261 19.7066C7.55016 19.7066 7.01978 19.5465 6.56795 19.2463C6.11611 18.9462 5.76292 18.5193 5.55264 18.0193C4.72356 15.624 3.17141 13.5452 1.11043 12.0697C0.765724 11.8119 0.485881 11.4772 0.293123 11.0924C0.100364 10.7075 0 10.283 0 9.85251C0 9.42205 0.100364 8.99753 0.293123 8.61265C0.485881 8.22777 0.765724 7.89313 1.11043 7.63532C3.17137 6.16048 4.72355 4.08213 5.55264 1.6873C5.76292 1.18726 6.11611 0.76042 6.56795 0.460265C7.01978 0.160111 7.55016 0 8.09261 0C8.63506 0 9.16544 0.160111 9.61728 0.460265C10.0691 0.76042 10.4223 1.18726 10.6326 1.6873C11.4615 4.08244 13.0137 6.16109 15.0748 7.6361C15.4195 7.89392 15.6993 8.22855 15.8921 8.61343C16.0849 8.99831 16.1852 9.42284 16.1852 9.85329C16.1852 10.2837 16.0849 10.7083 15.8921 11.0931C15.6993 11.478 15.4195 11.8127 15.0748 12.0705ZM2.51203 10.1847C4.92617 11.9197 6.75008 14.3534 7.73771 17.1575V17.1536C7.76479 17.2256 7.81309 17.2877 7.87622 17.3316C7.93935 17.3756 8.01434 17.3993 8.09126 17.3998C8.16819 17.4002 8.24344 17.3773 8.30705 17.334C8.37066 17.2907 8.41965 17.2292 8.44752 17.1575C9.43523 14.3534 11.2591 11.9198 13.6732 10.1847C13.9168 9.9426 13.9161 9.76711 13.6732 9.52424C11.2592 7.78906 9.43537 5.35542 8.44752 2.55145C8.42004 2.4796 8.3714 2.41778 8.30803 2.37417C8.24466 2.33056 8.16954 2.30721 8.09261 2.30721C8.01569 2.30721 7.94057 2.33056 7.8772 2.37417C7.81383 2.41778 7.76519 2.4796 7.73771 2.55145C6.74977 5.35537 4.92592 7.78898 2.51203 9.52424C2.26838 9.76711 2.26838 9.9426 2.51203 10.1847ZM66.7605 24.8525C67.1835 24.2067 67.4609 23.4764 67.5732 22.7126C67.6856 21.9488 67.6303 21.1696 67.4112 20.4293C67.1921 19.689 66.8144 19.0053 66.3044 18.4256C65.7944 17.846 65.1643 17.3843 64.4579 17.0728C65.9324 14.076 67.5972 10.5967 68.2906 8.79865C70.4012 3.6192 64.5895 -1.81409 59.9577 1.48349C58.716 2.36645 54.9185 3.57768 54.204 1.80628C53.256 -0.5441 46.7612 -0.5441 45.8116 1.80628C45.0963 3.57846 41.302 2.36723 40.0587 1.48349C35.4237 -1.80704 29.623 3.61842 31.725 8.79708C32.3345 10.3859 33.7072 13.309 35.0336 16.0472L27.3658 12.5694C26.3463 12.1071 25.1849 12.0687 24.1371 12.4627C23.0893 12.8567 22.2409 13.6508 21.7786 14.6703C21.3163 15.6898 21.2779 16.8512 21.6719 17.899C22.0659 18.9468 22.8599 19.7952 23.8794 20.2575L28.6382 22.4144L20.7111 25.2842C20.1561 25.4821 19.6456 25.7877 19.209 26.1835C18.7725 26.5793 18.4184 27.0574 18.1671 27.5905C17.9159 28.1235 17.7724 28.7009 17.745 29.2896C17.7175 29.8782 17.8066 30.4664 18.0072 31.0205C18.2078 31.5746 18.5159 32.0836 18.9137 32.5183C19.3116 32.953 19.7914 33.3048 20.3256 33.5535C20.8599 33.8022 21.438 33.9429 22.0267 33.9675C22.6155 33.9921 23.2033 33.9002 23.7564 33.697L24.7224 33.3476C17.0829 41.8747 8.72343 54.0277 8.09275 66.8757C7.5835 77.2839 9.79677 84.9399 14.861 90.2823C22.2577 98.084 34.2603 99.701 50.0023 99.8005C65.1231 99.8961 77.8496 98.3386 85.0731 90.6168C90.193 85.2682 92.4329 77.5025 91.9213 66.878C91.0477 48.7347 74.6868 31.953 66.7605 24.8525ZM33.9203 7.95565C32.608 4.38934 36.1484 1.7718 39.0127 3.59491C40.351 4.48369 41.9013 5.00117 43.5051 5.09445C46.1015 5.09445 47.1999 4.32745 47.7084 3.19613C48.227 2.04288 51.7925 2.04366 52.3104 3.19613C52.8196 4.32745 53.918 5.09445 56.5136 5.09445C58.1174 5.01233 59.6684 4.49443 60.9997 3.59648C63.9064 1.83056 67.4147 4.39013 66.0985 7.9533C65.3879 9.79678 63.5679 13.5715 62.0472 16.6497C62.0156 16.6516 61.984 16.6531 61.9524 16.6545L61.9009 16.6566C61.779 16.6617 61.6571 16.6667 61.5341 16.6857C53.8964 17.875 46.1207 17.875 38.4831 16.6857C38.3032 16.6639 38.1222 16.6513 37.941 16.6481C36.4297 13.5636 34.6238 9.78816 33.9203 7.95565ZM34.9466 20.7793C35.2046 20.1739 35.6564 19.6713 36.231 19.3504C36.8055 19.0295 37.4704 18.9085 38.1212 19.0063C45.9973 20.2438 54.0183 20.2438 61.8944 19.0063C65.637 18.4963 66.6438 23.9131 62.9913 24.7977C54.4319 26.6212 45.5845 26.6212 37.0251 24.7977C36.6077 24.6976 36.2167 24.5088 35.8788 24.2442C35.5409 23.9795 35.2639 23.6452 35.0667 23.2639C34.8695 22.8827 34.7567 22.4634 34.7359 22.0347C34.7152 21.606 34.7871 21.1778 34.9466 20.7793ZM24.8509 18.1155C24.6234 18.0167 24.4177 17.8735 24.246 17.6944C24.0743 17.5153 23.94 17.3038 23.8509 17.0723C23.7617 16.8407 23.7195 16.5938 23.7267 16.3457C23.734 16.0977 23.7905 15.8536 23.893 15.6277C23.9955 15.4017 24.1419 15.1984 24.3238 15.0296C24.5056 14.8608 24.7193 14.7299 24.9522 14.6445C25.1851 14.5591 25.4328 14.5209 25.6806 14.5321C25.9285 14.5433 26.1716 14.6037 26.3959 14.7098L33.9673 18.143C33.1621 18.9189 32.6278 19.9333 32.4434 21.0363L31.8041 21.2713L24.8509 18.1155ZM22.9565 31.4876C22.6942 31.5825 22.4157 31.6247 22.137 31.612C21.8583 31.5992 21.5849 31.5317 21.3323 31.4132C20.8222 31.1741 20.4279 30.742 20.2364 30.2122C20.0448 29.6823 20.0715 29.098 20.3107 28.5879C20.5499 28.0778 20.982 27.6836 21.5118 27.492L32.6095 23.4752C32.7506 23.9544 32.9618 24.4101 33.2363 24.8274C31.812 26.1053 30.1142 27.6988 28.2809 29.5572L22.9565 31.4876ZM83.3753 88.9935C76.5671 96.105 65.1286 97.516 50.0133 97.4502C36.9115 97.393 23.7917 96.2859 16.5674 88.6645C11.9685 83.818 9.96521 76.7238 10.4431 66.9901C11.2955 49.5973 27.3141 33.2794 34.9388 26.4641C35.4299 26.7581 35.9658 26.9698 36.5253 27.0908C45.4088 29.0397 54.6092 29.0397 63.4927 27.0908C64.0431 26.9703 64.5706 26.7621 65.0549 26.4743C72.6882 33.2904 88.7397 49.6145 89.5772 66.9861C90.0527 76.9369 88.0252 84.1314 83.3753 88.9888V88.9935ZM68.0457 59.2888C66.7663 44.9257 59.1424 34.0293 50.0073 34.0293C40.8722 34.0293 33.2476 44.9257 31.9689 59.2888C29.8763 60.2453 28.1037 61.7846 26.8634 63.7226C25.6231 65.6605 24.9678 67.9149 24.9758 70.2158V82.1729C24.9014 84.8798 28.213 86.8799 30.4874 85.1994C31.7582 84.3376 34.3452 82.0875 35.9944 80.6248C36.4739 81.0725 37.0093 81.4564 37.5871 81.7671C38.5704 84.1269 40.6841 86.8212 43.7232 87.2395C47.8945 87.7989 52.1217 87.7989 56.293 87.2395C59.3305 86.8204 61.4435 84.1261 62.4275 81.7671C63.0053 81.4564 63.5407 81.0725 64.0203 80.6248C65.6694 82.0875 68.2564 84.336 69.5272 85.1994C71.7992 86.8807 75.114 84.879 75.0388 82.1729V70.2158C75.0469 67.9149 74.3915 65.6605 73.1512 63.7226C71.9109 61.7846 70.1383 60.2453 68.0457 59.2888ZM50.0073 36.3797C53.3378 36.3797 56.4387 38.1488 59.0014 41.1721C56.8077 42.4202 53.7334 43.0783 50.0073 43.0783C46.2812 43.0783 43.2069 42.4202 41.0124 41.1721C43.5759 38.1488 46.6768 36.3797 50.0073 36.3797ZM29.1673 83.2525C28.3682 83.8652 27.3168 83.0402 27.327 82.1706V70.2158C27.3215 68.5874 27.7293 66.9843 28.5123 65.5565C29.2952 64.1287 30.4277 62.923 31.8036 62.0521C31.6394 67.2499 32.3603 72.4377 33.9354 77.3938C34.0959 77.8673 34.3018 78.3241 34.5504 78.7578C33.0564 80.0873 30.3707 82.4346 29.1673 83.2525ZM55.9741 84.908C52.0147 85.4376 48.0023 85.4376 44.0428 84.908C42.7631 84.6469 41.6348 83.8992 40.8957 82.8224C46.8986 84.1425 53.1168 84.1425 59.1197 82.8224C58.3811 83.8993 57.2529 84.6471 55.9733 84.908H55.9741ZM63.8463 76.6621C63.5729 77.5018 63.0955 78.2606 62.4568 78.8706C61.8182 79.4805 61.0382 79.9225 60.1868 80.1571C53.513 81.9047 46.5016 81.9047 39.8278 80.1571C38.9765 79.9225 38.1967 79.4806 37.558 78.8708C36.9194 78.261 36.4419 77.5024 36.1683 76.6628C36.1474 76.5988 36.1282 76.5332 36.1091 76.4675C36.0924 76.4103 36.0757 76.3531 36.0578 76.297C40.5776 77.6793 45.2809 78.368 50.0073 78.3394C54.7336 78.3676 59.4369 77.6789 63.9568 76.297C63.9392 76.3523 63.9227 76.4086 63.9063 76.4648L63.9062 76.4651C63.8869 76.5314 63.8675 76.5977 63.8463 76.6621ZM50.0073 75.9891C45.0017 76.0327 40.0263 75.2091 35.3018 73.5549C34.4182 69.7803 34.0321 65.9064 34.1532 62.0317C34.4024 54.4392 36.4605 47.7172 39.5865 43.0595C42.1719 44.6107 45.7367 45.4271 50.0065 45.4271C54.2764 45.4271 57.8458 44.6107 60.4265 43.0603C63.5518 47.7172 65.6107 54.4392 65.8598 62.0317C65.9816 65.9064 65.5957 69.7803 64.7121 73.5549C59.9878 75.2092 55.0127 76.0328 50.0073 75.9891ZM72.6884 82.1706C72.6986 83.0402 71.6472 83.8652 70.8481 83.2525C69.6439 82.4346 66.9582 80.0873 65.4642 78.7609C65.7128 78.3269 65.9187 77.8699 66.0792 77.3962C67.655 72.4394 68.3761 67.2507 68.2118 62.0521C69.5877 62.923 70.7202 64.1287 71.5031 65.5565C72.2861 66.9843 72.6939 68.5874 72.6884 70.2158V82.1706ZM46.7669 51.4655C47.7267 50.8241 48.8552 50.4818 50.0096 50.4818C51.5571 50.4835 53.0408 51.0989 54.135 52.1932C55.2293 53.2874 55.8447 54.7711 55.8464 56.3186C55.8464 57.473 55.5041 58.6015 54.8627 59.5613C54.2214 60.5212 53.3098 61.2693 52.2433 61.7111C51.1767 62.1528 50.0032 62.2684 48.8709 62.0432C47.7387 61.818 46.6987 61.2621 45.8824 60.4458C45.0661 59.6295 44.5102 58.5895 44.285 57.4573C44.0598 56.3251 44.1754 55.1515 44.6171 54.0849C45.0589 53.0184 45.807 52.1068 46.7669 51.4655ZM48.0727 59.2174C48.646 59.6005 49.3201 59.805 50.0096 59.805C50.934 59.8039 51.8201 59.4363 52.4737 58.7827C53.1273 58.1291 53.495 57.2429 53.496 56.3186C53.496 55.629 53.2915 54.955 52.9085 54.3816C52.5254 53.8083 51.9809 53.3614 51.3438 53.0976C50.7068 52.8337 50.0058 52.7647 49.3295 52.8992C48.6532 53.0337 48.032 53.3657 47.5444 53.8533C47.0568 54.3409 46.7247 54.9621 46.5902 55.6384C46.4557 56.3147 46.5247 57.0157 46.7886 57.6528C47.0525 58.2898 47.4994 58.8343 48.0727 59.2174ZM98.8764 24.8658C96.4447 23.1574 94.6293 20.7097 93.7001 17.8868C93.4956 17.3747 93.1423 16.9356 92.6857 16.6263C92.2292 16.3171 91.6904 16.1517 91.139 16.1517C90.5875 16.1517 90.0488 16.3171 89.5922 16.6263C89.1357 16.9356 88.7824 17.3747 88.5779 17.8868C87.6489 20.7098 85.8334 23.1575 83.4015 24.8658C83.0533 25.1225 82.7702 25.4574 82.5751 25.8436C82.3801 26.2297 82.2784 26.6563 82.2784 27.0889C82.2784 27.5215 82.3801 27.9481 82.5751 28.3342C82.7702 28.7204 83.0533 29.0553 83.4015 29.312C85.8334 31.0208 87.6491 33.4687 88.5786 36.2918C88.7831 36.8039 89.1365 37.243 89.593 37.5523C90.0495 37.8616 90.5883 38.0269 91.1398 38.0269C91.6912 38.0269 92.23 37.8616 92.6865 37.5523C93.1431 37.243 93.4964 36.8039 93.7009 36.2918C94.6303 33.469 96.4456 31.0214 98.8772 29.3128C99.2256 29.056 99.5087 28.721 99.7038 28.3348C99.8989 27.9485 100.001 27.5218 100 27.0891C100 26.6564 99.8986 26.2297 99.7034 25.8435C99.5081 25.4573 99.2249 25.1225 98.8764 24.8658ZM97.4921 27.409C94.6935 29.3843 92.5968 32.1995 91.5056 35.4465C91.4801 35.5235 91.4309 35.5906 91.3651 35.6381C91.2993 35.6857 91.2202 35.7113 91.139 35.7113C91.0578 35.7113 90.9787 35.6857 90.9128 35.6381C90.847 35.5906 90.7978 35.5235 90.7723 35.4465C89.6808 32.1994 87.5838 29.3843 84.7851 27.409C84.7306 27.3745 84.6857 27.3268 84.6545 27.2703C84.6234 27.2138 84.6071 27.1503 84.6071 27.0858C84.6071 27.0213 84.6234 26.9578 84.6545 26.9013C84.6857 26.8448 84.7306 26.7971 84.7851 26.7626C87.5838 24.7878 89.6806 21.9728 90.7715 18.7259C90.7971 18.6488 90.8462 18.5817 90.912 18.5342C90.9779 18.4867 91.057 18.4611 91.1382 18.4611C91.2194 18.4611 91.2985 18.4867 91.3643 18.5342C91.4302 18.5817 91.4793 18.6488 91.5049 18.7259C92.5958 21.9728 94.6926 24.7878 97.4913 26.7626C97.5458 26.797 97.5908 26.8447 97.622 26.9011C97.6532 26.9576 97.6696 27.021 97.6697 27.0856C97.6698 27.1501 97.6535 27.2136 97.6225 27.2701C97.5914 27.3267 97.5465 27.3744 97.4921 27.409Z" fill="url(#paint0_linear_2321_1922)"/>
</g>
<defs>
<linearGradient id="paint0_linear_2321_1922" x1="2.46918" y1="-6.41673" x2="85.1858" y2="92.3502" gradientUnits="userSpaceOnUse">
<stop stop-color="#E6007A"/>
<stop offset="0.21" stop-color="#703AC2"/>
<stop offset="0.46" stop-color="#0070EB"/>
<stop offset="0.77" stop-color="#0297FB"/>
<stop offset="1" stop-color="#0AE2FF"/>
</linearGradient>
<clipPath id="clip0_2321_1922">
<rect width="100" height="100" fill="white"/>
</clipPath>
</defs>
</svg>

<svg xmlns="http://www.w3.org/2000/svg" width="100" height="100" fill="none"><g clip-path="url(#a)"><path fill="url(#b)" fill-rule="evenodd" d="M15.075 12.07a12.243 12.243 0 0 0-4.442 5.95 2.756 2.756 0 0 1-5.08 0 12.242 12.242 0 0 0-4.443-5.95 2.77 2.77 0 0 1 0-4.435 12.237 12.237 0 0 0 4.443-5.948 2.755 2.755 0 0 1 5.08 0 12.236 12.236 0 0 0 4.442 5.95 2.77 2.77 0 0 1 0 4.433ZM2.512 10.185a14.532 14.532 0 0 1 5.226 6.972v-.003a.38.38 0 0 0 .71.003 14.533 14.533 0 0 1 5.225-6.972c.244-.242.243-.418 0-.66A14.535 14.535 0 0 1 8.448 2.55a.38.38 0 0 0-.71 0 14.537 14.537 0 0 1-5.226 6.973c-.244.243-.244.419 0 .66ZM66.76 24.852a5.317 5.317 0 0 0-2.302-7.78c1.474-2.996 3.14-6.475 3.833-8.273 2.11-5.18-3.701-10.613-8.333-7.316-1.242.883-5.04 2.095-5.754.323-.948-2.35-7.443-2.35-8.392 0-.716 1.772-4.51.561-5.753-.323-4.635-3.29-10.436 2.135-8.334 7.314.61 1.589 1.982 4.512 3.309 7.25l-7.668-3.478a4.22 4.22 0 0 0-3.487 7.688l4.76 2.157-7.928 2.87a4.474 4.474 0 1 0 3.045 8.413l.966-.35c-7.64 8.528-15.999 20.68-16.63 33.529-.509 10.408 1.705 18.064 6.769 23.406 7.397 7.802 19.4 9.419 35.141 9.519 15.121.095 27.848-1.462 35.071-9.184 5.12-5.349 7.36-13.115 6.848-23.739-.873-18.143-17.234-34.925-25.16-42.026ZM33.92 7.956c-1.312-3.567 2.228-6.184 5.093-4.361a9.073 9.073 0 0 0 4.492 1.5c2.596 0 3.695-.768 4.203-1.899.519-1.153 4.084-1.152 4.602 0 .51 1.131 1.608 1.898 4.204 1.898A8.83 8.83 0 0 0 61 3.596c2.906-1.765 6.415.794 5.099 4.357-.711 1.844-2.531 5.619-4.052 8.697a6.015 6.015 0 0 1-.095.005l-.051.002c-.122.005-.244.01-.367.029a74.908 74.908 0 0 1-23.05 0 5.282 5.282 0 0 0-.543-.038c-1.511-3.084-3.317-6.86-4.02-8.692Zm1.027 12.823a2.97 2.97 0 0 1 3.174-1.773 76.58 76.58 0 0 0 23.773 0c3.743-.51 4.75 4.907 1.097 5.792a62.31 62.31 0 0 1-25.966 0 2.99 2.99 0 0 1-2.078-4.019ZM24.85 18.116a1.87 1.87 0 1 1 1.545-3.406l7.571 3.433a5.211 5.211 0 0 0-1.524 2.893l-.639.235-6.953-3.155Zm-1.895 13.372a2.125 2.125 0 1 1-1.444-3.996l11.097-4.017c.142.48.353.935.627 1.352a113.102 113.102 0 0 0-4.955 4.73l-5.325 1.93Zm60.42 57.505c-6.809 7.112-18.247 8.523-33.363 8.457-13.102-.057-26.221-1.164-33.446-8.785-4.598-4.847-6.602-11.941-6.124-21.675.853-17.393 16.871-33.71 24.496-40.526a5.249 5.249 0 0 0 1.586.627 62.923 62.923 0 0 0 26.968 0 5.26 5.26 0 0 0 1.562-.617c7.633 6.816 23.685 23.14 24.522 40.512.476 9.95-1.552 17.145-6.202 22.003v.004ZM68.045 59.29c-1.28-14.363-8.904-25.26-18.039-25.26-9.135 0-16.76 10.897-18.038 25.26a11.969 11.969 0 0 0-6.993 10.927v11.957c-.075 2.707 3.237 4.707 5.511 3.026 1.271-.861 3.858-3.111 5.507-4.574.48.448 1.015.831 1.593 1.142.983 2.36 3.097 5.054 6.136 5.473 4.172.559 8.399.559 12.57 0 3.038-.42 5.15-3.114 6.135-5.473a7.63 7.63 0 0 0 1.592-1.142c1.65 1.463 4.236 3.711 5.507 4.574 2.272 1.682 5.587-.32 5.512-3.026V70.216a11.967 11.967 0 0 0-6.993-10.927Zm-18.039-22.91c3.33 0 6.432 1.77 8.994 4.793-2.193 1.248-5.268 1.906-8.994 1.906s-6.8-.658-8.995-1.906c2.564-3.023 5.665-4.792 8.995-4.792Zm-20.84 46.873c-.799.613-1.85-.212-1.84-1.081V70.216a9.622 9.622 0 0 1 4.477-8.164 45.87 45.87 0 0 0 2.131 15.342c.16.473.367.93.615 1.364-1.494 1.33-4.18 3.677-5.383 4.495Zm26.807 1.656c-3.96.53-7.972.53-11.931 0a5.039 5.039 0 0 1-3.147-2.086 42.425 42.425 0 0 0 18.224 0 5.035 5.035 0 0 1-3.147 2.086h.001Zm7.872-8.246a5.34 5.34 0 0 1-3.66 3.495 40.185 40.185 0 0 1-20.358 0 5.342 5.342 0 0 1-3.719-3.69c-.017-.057-.033-.114-.051-.17a46.73 46.73 0 0 0 13.95 2.042c4.726.029 9.429-.66 13.949-2.042a7.268 7.268 0 0 0-.05.168l-.06.197Zm-13.839-.673a43.357 43.357 0 0 1-14.705-2.434 44.462 44.462 0 0 1-1.149-11.523c.25-7.593 2.308-14.315 5.434-18.972 2.585 1.55 6.15 2.367 10.42 2.367s7.839-.816 10.42-2.367c3.125 4.657 5.184 11.38 5.433 18.972a44.431 44.431 0 0 1-1.148 11.523 43.349 43.349 0 0 1-14.705 2.434Zm22.681 6.182c.01.87-1.04 1.694-1.84 1.081-1.204-.817-3.89-3.165-5.384-4.491.249-.434.455-.891.615-1.365a45.864 45.864 0 0 0 2.133-15.344 9.623 9.623 0 0 1 4.476 8.164V82.17ZM46.767 51.465a5.836 5.836 0 1 1 6.485 9.705 5.836 5.836 0 0 1-6.485-9.705Zm1.306 7.752a3.486 3.486 0 1 0 3.874-5.797 3.486 3.486 0 0 0-3.874 5.797Zm50.803-34.351a13.804 13.804 0 0 1-5.176-6.98 2.758 2.758 0 0 0-5.122 0 13.8 13.8 0 0 1-5.177 6.98 2.762 2.762 0 0 0 0 4.446 13.809 13.809 0 0 1 5.178 6.98 2.758 2.758 0 0 0 5.122 0 13.807 13.807 0 0 1 5.176-6.98 2.762 2.762 0 0 0 0-4.446Zm-1.384 2.543a16.125 16.125 0 0 0-5.986 8.038.386.386 0 0 1-.734 0 16.127 16.127 0 0 0-5.987-8.038.384.384 0 0 1 0-.646 16.119 16.119 0 0 0 5.987-8.037.387.387 0 0 1 .733 0 16.119 16.119 0 0 0 5.986 8.037.383.383 0 0 1 .001.646Z" clip-rule="evenodd"/></g><defs><linearGradient id="b" x1="2.469" x2="85.186" y1="-6.417" y2="92.35" gradientUnits="userSpaceOnUse"><stop stop-color="#E6007A"/><stop offset=".21" stop-color="#703AC2"/><stop offset=".46" stop-color="#0070EB"/><stop offset=".77" stop-color="#0297FB"/><stop offset="1" stop-color="#0AE2FF"/></linearGradient><clipPath id="a"><path fill="#fff" d="M0 0h100v100H0z"/></clipPath></defs></svg>
